X:1
T:Title
%%score ( 1 2 ) ( 3 4 )
L:1/8
Q:1/4=75
M:3/8
K:Eb
V:1 treble nm="Grand Piano, Soprano"
V:2 treble 
V:3 bass nm="Choir Pad, Nagoya, J. R. Sweney 1881"
V:4 bass 
V:1
 [EG][GB][Ge] | [Ge]/[Fd]/ [FA]2 | [DF][FA][Bd] | [Ac] [GB]2 | [GB][FA][EG] | .G z z | %6
w: By~John~Robson~Sweney,~1881 * *||||||
 [B,D][DA][B,D] | [B,E]2 z | [DF][DF][DB] | [DB] [C=A]2 | [Ge][EG][F=A] | [EG] [DF]2 | %12
w: ||||||
 [DF][DB][Fd] | [Af]/[Ge]/ [EG]2 | [C=A][DB][Ec] | [DB][E=A][F_A] | [EG][GB][Ge] | %17
w: |||||
 [Ge]/[Fd]/ [FA]2 | [DF][FA][Bd] | [Ac] [GB]2 | [GB][FA][EG] | .G z z | [B,D][DA][B,D] | [B,E]3- | %24
w: |||||||
 [B,E]3 |] %25
w: |
V:2
 x3 | x3 | x3 | x3 | x3 | E/-[EF]/ [A,C]2 | x3 | x3 | x3 | x3 | x3 | x3 | x3 | x3 | x3 | x3 | x3 | %17
 x3 | x3 | x3 | x3 | E/-[EF]/ C2 | x3 | x3 | x3 |] %25
V:3
 E,[G,B,][G,B,] | B,,B,B, | B,,B,B, | E,G,B, | [E,E][F,B,][G,B,] | [A,C]A,,E, | B,,F,B,, | E,2 z | %8
 B,,B,B, | F,,F,F, | F,,F,F, | B,,B,B, | B,,F,A, | E,B,B, | F,[F,,F,][F,,F,] | [B,,F,]C,D, | %16
 [E,B,][E,E][E,B,] | B, B,2 | [B,,B,][B,,B,][B,,B,] | B, z z | [E,E][F,B,][G,B,] | [A,C] [A,,E,]2 | %22
 [B,,A,][B,,F,][B,,A,] | [E,G,]3- | [E,G,]3 |] %25
V:4
 x3 | x3 | x3 | x3 | x3 | x3 | x3 | x3 | x3 | x3 | x3 | x3 | x3 | x3 | x3 | x3 | x3 | x3 | x3 | %19
 E,- [E,E]2 | x3 | x3 | x3 | x3 | x3 |] %25

